public/avatar/shoe/38.svg

<svg xmlns:xlink="http://www.w3.org/1999/xlink" height="38.3" width="36.05" xmlns="http://www.w3.org/2000/svg"><use height="16" transform="translate(9.3 11.75)" width="23.05" xlink:href="#a"/><defs><g id="a"><path d="m4.85-1.55 3.2 6.6.05.45v1.65l-.1.3L6.65 8.7l-1.3.75L-.7 11.5l-1.75.4-5 .55-1.05-.15h-.4l-1.45-.1-1.9-.5-.15-.05h-.2l-.35-.15-.55-.3v-.15l-.1-.1-.05-.25-.1-.25v-.3l-.1-.35v-.35l-.15-1 .05-.4.1-.35.75-1.3 1.2-1.5 5.5-5.15 2.7-1.6 1.35-.5L-.9-2.6l3.25.1 1.7.5.8.45" fill="#fff" fill-rule="evenodd" transform="translate(14.5 3.1)"/><path d="m7.95 5.3.15 1.8-.45 1q-2.3 1.35-4.35 2.1-5.45 2.1-10.75 2.25-3.1 0-5.85-1.2l-.75-2.8 6.5 1.35q2.25.25 8.5-1.45 3.2-.85 7-3.05" fill="#ebebeb" fill-rule="evenodd" transform="translate(14.5 3.1)"/><path d="m1.95-2.15 2.6.75q.5.4 2.5 4.4L8.1 7.35l-1.2 1.2-2.1 1.4Q3.2 6 2.35 4.8.35 2.05-8.1 1.85l2.5-2.6q1.3-.8 4.2-1.55l3.35.15" fill="#cfcfcf" fill-rule="evenodd" transform="translate(14.5 3.1)"/><path d="M4.55-1.55Q2.4.1-1.7 0q-4.15-.2-1.45-1.8l3.8-.85q2.4-.05 3.9 1.1" fill="#5e5e5e" fill-rule="evenodd" transform="translate(14.5 3.1)"/><path d="m3.75 7.5 2-.8 1.9-1.5.25 1.95-.75 1.15-2.5 1.25-.9-2.05" fill="#adadad" fill-rule="evenodd" transform="translate(14.5 3.1)"/><path d="m18.55 1.1.8.45 3.2 6.6.05.45v1.6l-.05.2-.1.15-1.3 1.25-1.3.75-1.7.65-4.35 1.4-1.35.25-.4.1-1.75.35-1.2.05-.45.05-1.2.05-.4.1-1.1-.15H5.6l-1.45-.1-1.95-.5-.1-.1h-.2l-.35-.1-.6-.3v-.15l-.05-.1-.05-.25-.15-.25v-.35l-.05-.3v-.35l-.2-1 .1-.4.1-.35.75-1.35 1.2-1.5 5.5-5.1 2.7-1.65 1.35-.5L13.6.45l3.25.15 1.7.5Z" fill="none" stroke="#000" stroke-linecap="round" stroke-linejoin="round" stroke-width=".95"/><path d="m-8.55 1.95 5.2 1.5" fill="none" stroke="#000" stroke-linecap="round" stroke-linejoin="round" transform="translate(14.5 3.1)"/><path d="M3.4 7.5 7 8.9" fill="none" stroke="#000" stroke-linecap="round" stroke-linejoin="round" stroke-width=".95"/></g></defs></svg>

<?xml version="1.0" encoding="UTF-8" standalone="no"?>
<svg xmlns:xlink="http://www.w3.org/1999/xlink" height="38.3px" width="36.05px" xmlns="http://www.w3.org/2000/svg">
  <g transform="matrix(1.0, 0.0, 0.0, 1.0, 23.8, 14.85)">
    <use height="16.0" transform="matrix(1.0, 0.0, 0.0, 1.0, -14.5, -3.1)" width="23.05" xlink:href="#shape0"/>
  </g>
  <defs>
    <g id="shape0" transform="matrix(1.0, 0.0, 0.0, 1.0, 14.5, 3.1)">
      <path d="M4.85 -1.55 L8.05 5.05 8.1 5.5 8.1 7.15 8.0 7.45 6.65 8.7 5.35 9.45 -0.7 11.5 -2.45 11.9 -7.45 12.45 -8.5 12.3 -8.9 12.3 -10.35 12.2 -12.25 11.7 -12.4 11.65 -12.6 11.65 -12.95 11.5 -13.5 11.2 -13.5 11.05 -13.6 10.95 -13.65 10.7 -13.75 10.45 -13.75 10.15 -13.85 9.8 -13.85 9.45 -14.0 8.45 -13.95 8.05 -13.85 7.7 -13.1 6.4 -11.9 4.9 -6.4 -0.25 -3.7 -1.85 -2.35 -2.35 -0.9 -2.6 2.35 -2.5 4.05 -2.0 4.85 -1.55" fill="#ffffff" fill-rule="evenodd" stroke="none"/>
      <path d="M7.95 5.3 L8.1 7.1 7.65 8.1 Q5.35 9.45 3.3 10.2 -2.15 12.3 -7.45 12.45 -10.55 12.45 -13.3 11.25 L-14.05 8.45 -7.55 9.8 Q-5.3 10.05 0.95 8.35 4.15 7.5 7.95 5.3" fill="#ebebeb" fill-rule="evenodd" stroke="none"/>
      <path d="M1.95 -2.15 L4.55 -1.4 Q5.05 -1.0 7.05 3.0 L8.1 7.35 6.9 8.55 4.8 9.95 Q3.2 6.0 2.35 4.8 0.35 2.05 -8.1 1.85 L-5.6 -0.75 Q-4.3 -1.55 -1.4 -2.3 L1.95 -2.15" fill="#cfcfcf" fill-rule="evenodd" stroke="none"/>
      <path d="M4.55 -1.55 Q2.4 0.1 -1.7 0.0 -5.85 -0.2 -3.15 -1.8 L0.65 -2.65 Q3.05 -2.7 4.55 -1.55" fill="#5e5e5e" fill-rule="evenodd" stroke="none"/>
      <path d="M3.75 7.5 L5.75 6.7 7.65 5.2 7.9 7.15 7.15 8.3 4.65 9.55 3.75 7.5" fill="#adadad" fill-rule="evenodd" stroke="none"/>
      <path d="M4.05 -2.0 L4.85 -1.55 8.05 5.05 8.1 5.5 8.1 7.1 8.05 7.3 7.95 7.45 6.65 8.7 5.35 9.45 3.65 10.1 -0.7 11.5 -2.05 11.75 -2.45 11.85 -4.2 12.2 -5.4 12.25 -5.85 12.3 -7.05 12.35 -7.45 12.45 -8.55 12.3 -8.9 12.3 -10.35 12.2 -12.3 11.7 -12.4 11.6 -12.6 11.6 -12.95 11.5 -13.55 11.2 -13.55 11.05 -13.6 10.95 -13.65 10.7 -13.8 10.45 -13.8 10.1 -13.85 9.8 -13.85 9.45 -14.05 8.45 -13.95 8.05 -13.85 7.7 -13.1 6.35 -11.9 4.85 -6.4 -0.25 -3.7 -1.9 -2.35 -2.4 -0.9 -2.65 2.35 -2.5 4.05 -2.0 Z" fill="none" stroke="#000000" stroke-linecap="round" stroke-linejoin="round" stroke-width="0.9500000000000001"/>
      <path d="M-8.55 1.95 L-3.35 3.45" fill="none" stroke="#000000" stroke-linecap="round" stroke-linejoin="round" stroke-width="1.0"/>
      <path d="M-11.1 4.4 L-7.5 5.8" fill="none" stroke="#000000" stroke-linecap="round" stroke-linejoin="round" stroke-width="0.9500000000000001"/>
    </g>
  </defs>
</svg>
